X:25
T:Glada Ryd
R:Polska
Z:Erik Ronström 1 okt 2009
M:3/4
L:1/16
K:A
(eaga) (eaga) e4|T(fe)fg a2e2 c2A2|d2fe d2c2 TB2A2|E2GB e2B2 G2E2|
(Edcd) (ed)cd E2d2|(cA)Bc (de)fg (ae)cA|(Edcd) (ed)cd E2d2|(cA)Bc (de)fg (ae)cA|
d2fd c2ec E2d2|cBAG (G2A2) A4::e2(e^d e2)(ed e4)|fe=dc BAGF E4|
a2ag Tf2fe B2a2|gfe^d (d2e2) e4|(Edcd) (ed)cd E2d2|(cA)Bc (de)fg (ae)cA|
(Edcd) (ed)cd E2d2|(cA)Bc (de)fg (ae)cA|d2fd c2ec E2d2|cBAG (G2A2) A4:|
(:musicend:)


Detta är den version som finns i [[Notböcker/Gotlandstoner]].

(:music:)
